X: 8237
T: Cór An Earraigh
R: jig
M: 6/8
K: Dmixolydian
|:[DA]dB c c/c/c|FGA GFD|AdB ccD|fga gfd|
AdB cc/c/c|FGA GFD|cE/F/G BAG|AFD D D/E/D:|
|:Ec/c/c cEG|EFG cAG|[DA]d/d/d ded|cAB c/B/AG|
Ecc cEG|EFG cAG|cE/F/G BAG|AFD DD/E/D:|

